X:528
T:Resolution. (p)1709.PLFD1.528
T:Quaker's Grace. (p)1709.PLFD1.528, The
M:4/4
L:1/4
Q:1/2=100
S:Playford, Dancing Master,13th Ed.,1709.
O:England;London
Z:Chris Partington
K:D
d/c/|dABd/c/|dDEd/c/|dAB/c/d/E/|G/F/E/D/D:|
|:F/G/|AAAB/c/|dddc/d/|BBBc/d/|e/f/e/d/cd/c/|
dABd/c/|dDEd/c/|dAB/c/d/E/|G/F/E/D/Dd/e/|
|fd/c/Bc/d/|ec/B/^Af/e/|de/f/ g/f/e/d/|c2Bd/c/|
dABd/c/|dDEd/c/|dAB/c/d/E/|G/F/E/D/D|]
